X: 266
T: Lurgan Lass
T: Shaneen Gaffney's
C: B.Black 4/08
N: 122256
M: 6/8
L: 1/8
R: jig
Q: 1/4=170
K: Dm
A | "Dm"d^cd "C"=cAG | "Dm"d^cd "C"=cAG | "Dm"FED "C"ECE | "Dm"FGA "Am"E2A |
"Dm"def "C"ece | "Dm"dcA "C"GEC | "Dm" DEF DCD | "Dm" DEF "Dm"D2 :|
E |"F"FAA cAA | "Gm" dBG "Dm"AFD | "F"FGA "C"GEC | "Dm"DEF "C"E2E |
"F"AFF cFF | "Bb" dBd "F"cAF |"Dm"DEF "Am7"GcA | "C" GEC "Dm"D2 :|
[K:D]e | "D" fdf "A" ecA | "G" BGB "A7" AGE| "D"DFA dcd | "G" Bcd "A"e2e |
"D" faf "G" gbg|"D"fdf "A"ecA|"Bm"Bcd "Em"edB | "A"Adc "D" d2 :|
